images/icons/commits-view.svg

<svg width="24" height="25" viewBox="0 0 24 25" xmlns="http://www.w3.org/2000/svg" fill="currentColor"><path d="M6.25 1.79643V0H7.75V1.79643C10.7097 2.1655 13 4.69029 13 7.75001C13 10.8097 10.7097 13.3345 7.75 13.7036V24L6.25 24.051V13.7036C3.29027 13.3345 1 10.8097 1 7.75001C1 4.69029 3.29027 2.1655 6.25 1.79643ZM7 12.25C9.48528 12.25 11.5 10.2353 11.5 7.75001C11.5 5.26473 9.48528 3.25001 7 3.25001C4.51472 3.25001 2.5 5.26473 2.5 7.75001C2.5 10.2353 4.51472 12.25 7 12.25Z"/><path d="M16.25 9.79644V0H17.75V9.79644C20.7097 10.1655 23 12.6903 23 15.75C23 18.8097 20.7097 21.3345 17.75 21.7036V24H16.25V21.7036C13.2903 21.3345 11 18.8097 11 15.75C11 12.6903 13.2903 10.1655 16.25 9.79644ZM17 20.25C19.4853 20.25 21.5 18.2353 21.5 15.75C21.5 13.2647 19.4853 11.25 17 11.25C14.5147 11.25 12.5 13.2647 12.5 15.75C12.5 18.2353 14.5147 20.25 17 20.25Z"/></svg>

<svg xmlns="http://www.w3.org/2000/svg" width="24" height="24" fill="currentColor"><path d="M6.25 1.8V0h1.5v1.8a6 6 0 0 1 0 11.87v10.28l-1.5.05V13.67a6 6 0 0 1 0-11.88ZM7 12.21a4.5 4.5 0 1 0 .01-8.99 4.5 4.5 0 0 0-.01 9Z"/><path d="M16.25 9.8V0h1.5v9.8a6 6 0 0 1 0 11.9V24h-1.5v-2.3a6 6 0 0 1 0-11.9ZM17 20.25a4.5 4.5 0 1 0 0-9 4.5 4.5 0 0 0 0 9Z"/></svg>
